img/sponsore1.svg

<svg width="130" height="21" viewBox="0 0 130 21" fill="none" xmlns="http://www.w3.org/2000/svg">
<path d="M47.9076 8.84634C48.0122 8.70623 56.2403 0.0197144 56.2403 0.0197144H48.4655C48.4655 0.0197144 41.1438 6.81482 40.83 7.09503V0.0197144H33.5084V20.0197H40.83V15.7115C40.8998 15.6414 42.2246 14.4856 42.3641 14.3455C42.5036 14.4856 46.9314 19.9847 46.9314 19.9847H56.7982C56.7982 20.0197 48.0122 8.98644 47.9076 8.84634Z" fill="black" fill-opacity="0.3"/>
<path d="M121.309 0V7.14536H114.998V0H107.502V19.965H115.033V12.7145H121.274V19.965H129.014V0H121.309Z" fill="black" fill-opacity="0.3"/>
<path d="M71.7024 6.09134V14.0773C71.7024 14.8829 71.1097 15.5484 70.4124 15.5484H66.1938C65.4616 15.5484 64.8689 14.8829 64.8689 14.0773V6.09134C64.8689 5.28574 65.4616 4.62023 66.1938 4.62023H70.4124C71.1097 4.62023 71.7024 5.28574 71.7024 6.09134ZM74.7357 0.0317993H61.7659C59.3254 0.0317993 57.373 2.27348 57.373 5.00553V14.953C57.373 17.7201 59.3603 19.9618 61.7659 19.9618H74.7357C77.1762 19.9618 79.1286 17.7201 79.1286 14.953V5.00553C79.1286 2.27348 77.1762 0.0317993 74.7357 0.0317993Z" fill="black" fill-opacity="0.3"/>
<path d="M103.948 7.26655V5.76043C103.983 3.97409 103.32 2.18775 102.239 1.10194C101.577 0.40141 100.775 0.0511475 99.9733 0.0511475H86.4108C84.2144 0.0511475 82.4362 2.60806 82.4362 5.76043V14.2368C82.4362 17.3892 84.2144 19.9461 86.4108 19.9461H99.9733C102.17 19.9461 103.948 17.3892 103.948 14.2368V11.925H96.8354L96.6611 13.8515C96.5914 14.6571 96.0336 15.5328 95.3363 15.5328H91.1873C90.4552 15.5328 89.8625 14.9023 89.8625 14.0967V6.14571C89.8625 5.3401 90.4552 4.70964 91.1873 4.70964H95.3363C96.0684 4.70964 96.6611 5.3401 96.6611 6.14571V7.26655H103.948Z" fill="black" fill-opacity="0.3"/>
<path d="M13.1092 0.0293579H13.0046H0V19.9943H13.0395C13.0395 19.9943 9.97135 10.1169 9.93649 10.0469C9.93649 9.97683 13.1092 0.0293579 13.1092 0.0293579Z" fill="black" fill-opacity="0.3"/>
<path d="M17.7603 0.0350342L11.7635 10.0175L17.7603 19.965H26.9646V0.0350342H17.7603Z" fill="black" fill-opacity="0.3"/>
</svg>

<svg width="130" height="21" viewBox="0 0 130 21" fill="none" xmlns="http://www.w3.org/2000/svg"><path d="M47.908 8.846C48.012 8.706 56.24.02 56.24.02h-7.775s-7.321 6.795-7.635 7.075V.02h-7.322v20h7.322v-4.31c.07-.07 1.395-1.225 1.534-1.366.14.14 4.567 5.64 4.567 5.64h9.867c0 .035-8.786-10.999-8.89-11.139zM121.309 0v7.145h-6.311V0h-7.496v19.965h7.531v-7.25h6.241v7.25h7.74V0h-7.705zM71.702 6.091v7.986c0 .806-.592 1.471-1.29 1.471h-4.218c-.732 0-1.325-.665-1.325-1.47V6.09c0-.805.593-1.47 1.325-1.47h4.218c.698 0 1.29.665 1.29 1.47zm3.034-6.06h-12.97c-2.44 0-4.393 2.242-4.393 4.975v9.947c0 2.767 1.987 5.009 4.393 5.009h12.97c2.44 0 4.393-2.242 4.393-5.009V5.006c0-2.733-1.953-4.974-4.393-4.974zm29.212 7.236V5.76c.035-1.786-.628-3.572-1.709-4.658-.662-.7-1.464-1.05-2.266-1.05H86.411c-2.197 0-3.975 2.556-3.975 5.708v8.477c0 3.152 1.778 5.71 3.975 5.71h13.562c2.197 0 3.975-2.558 3.975-5.71v-2.312h-7.113l-.174 1.926c-.07.806-.627 1.682-1.325 1.682h-4.149c-.732 0-1.325-.63-1.325-1.436V6.146c0-.806.593-1.436 1.325-1.436h4.15c.731 0 1.324.63 1.324 1.436v1.12h7.287zM13.11.03H0v19.964h13.04s-3.069-9.877-3.104-9.947c0-.07 3.173-10.018 3.173-10.018z" fill="#000" fill-opacity=".3"/><path d="M17.76.035l-5.997 9.982 5.997 9.948h9.205V.035H17.76z" fill="#000" fill-opacity=".3"/></svg>
